X:1
T:Eternita d'Amore
T:Giovanni Stefani
T:Source : Affetti amorosi-Canzonette ad una voce sola---Venetia---A.Vincenti---1621. Editor : André Vierendeels (12/11/15).
T:Notes : Original clefs : C1, F4 Editorial accidental above the staff Alfabetto et intavolatura per chitarra Spagnola Terza impressione (first print 1618) Aria della Romanesca
T:Se terrene belta-Eternita d'Amore
C:Giovanni Stefani
%%score 1 { ( 2 3 ) | 4 }
L:1/8
Q:1/4=90
M:4/4
K:F
V:1 treble nm="Soprano" snm="S"
V:2 treble nm="BC" snm="BC"
V:3 treble 
V:4 bass 
V:1
 z4 d4- | d4 d4 | d6 cB | c4 B4 | B6 A2 | B2 A2 BA B/A/B/c/ | A8 | z4 f4 | fedc dccB | c6 d2 | %10
w: Se|_ ter-|re- na bel-|ta pas-|sa'e non|du- * * * * * * *|ra,|crin|di- * * * ne- * * *|ve non|
w: Ch'in-|* fi-|ni- to de-|sio non|hà mi-|su- * * * * * * *|ra,|ne|giun- * * * ge'il _ _ _|tem- p'o-|
w: Pri-|* ma-|ve- ra de|l'al- ma'il|giel non|cu- * * * * * * *|ra,|ne|per _ _ _ ar- * * *|co'al- len-|
w: Lon|_ ta-|nan- za non|spe- gne'ar-|dor in|ter- * * * * * * *|no,|chi|ben _ _ _ a- * * *|ma'un sol|
 B6 A2 | c6 B2 | A4 G4- | G4 dcde | fedc dccB | c4 d4 | _e2 d2 c2 B2 | A8 | G8 |] %19
w: smor- z'an-|ti- co'ar-|do- re,|_ crin _ _ _|di- * * * ne- * * *|ve non|smor- z'an- ti- co'ar-|do-|re.|
w: ve tri-|on- f'a-|mo- re,|_ ne _ _ _|giun- * * * ge'il _ _ _|tem- p'o-|ve tri- on- f'a-|mo-|re.|
w: tar ri-|sa- na'un|co- re,|_ ne _ _ _|per _ _ _ ar- * * *|co'al- len-|tar ri- sa- na'un|co-|re/|
w: gior- no'a-|ma'in e-|ter- no,|_ chi _ _ _|ben _ _ _ a- * * *|ma'un sol|gior- no'a- ma'in e-|ter-|no.|
V:2
 z4 F4- | F8 | F8 | A4 B4 | B8 | G4 B2 c2 | A6 E2 | F4 B4 | F2 E2 A2 B2 | A4 A4 | B4 c4 | G4 G4 | %12
 A4 =B4 | G4 F4- | F2 E2 A2 B2 | c4 A4 | c8 | d8 | =B8 |] %19
V:3
 z4 D4- | D8 | D8 | F4 D4 | G8 | _E4 G4 | ^F6 E2 | D4 D4 | D2 C2 F2 C2 | C4 F4 | D4 G4 | _E4 D4 | %12
 ^F4 D4 | D4 D4- | D2 C2 F2 C2 | A4 F4 | G8 | ^F2 G4 F2 | G8 |] %19
V:4
 z4 B,,4- | B,,4 B,,4 | B,,2 C,2 D,2 E,2 | F,4 G,4 | _E,8 | _E,8 | D,6 C,2 | B,,8 | %8
 B,,2 C,2 D,2 E,2 | F,4 D,4 | G,4 _E,4 | C,4 G,,4 | D,4 G,,4- | G,,2 A,,2 B,,4 | B,,2 C,2 D,2 E,2 | %15
 F,4 D,4 | C,2 D,2 _E,2 C,2 | D,8 | G,,8 |] %19

